X: 6
T: The Milliner's Daughter
R: reel
M: 4/4
L: 1/8
K: Gmaj
dg~g2 dg~g2| df~f2 df~f2| dg~g2 bgag|d^cde fd=cA|dg~g2 bgag| d^cde ~f3|afge fde^c|d^cde fd=cA||dg~g2 dg~g2| d=f~=f2 d=f~=f2| dg~g2 bgag|d^cde =fdcA|dg~g2 bgag| d^cde ~f3|afge fde^c|d^cde fdcA||


Tune 1409	Setting 14783

